src/actions/22/coordinate.svg

<svg xmlns="http://www.w3.org/2000/svg" viewBox="0 0 22 22">
  <defs id="defs3051">
    <style type="text/css" id="current-color-scheme">
      .ColorScheme-Text {
        color:#2e3440;
      }
      </style>
  </defs>
 <path 
     style="fill:currentColor;fill-opacity:1;stroke:none" 
	 d="M 7 3 L 7 14 L 7 14.208984 L 1.921875 19.289062 C 1.921875 19.289062 2.6015381 19.99939 2.6113281 20 C 2.6113281 20 6.6314125 15.991631 7.6328125 14.988281 L 19 15 L 19 14 L 8 14 L 8 3 L 7 3 z "
	 class="ColorScheme-Text"
     />
</svg>

<svg viewBox="0 0 22 22" xmlns="http://www.w3.org/2000/svg">
 <defs>
  <style type="text/css">.ColorScheme-Text {
        color:#2e3440;
      }</style>
 </defs>
 <path class="ColorScheme-Text" d="m7 3v11 0.20898l-5.0781 5.0801s0.67966 0.71033 0.68945 0.71094c0 0 4.0201-4.0084 5.0215-5.0117l11.367 0.011719v-1h-11v-11h-1z" fill="currentColor"/>
</svg>
